outputs/icons/content/sort_sharp.svg

<svg xmlns="http://www.w3.org/2000/svg" width="1200" height="1200" fill="none"><g fill="#000" clip-path="url(#a)"><path d="M701.51 851.515c-14.64-14.645-14.64-38.385 0-53.025 14.645-14.645 38.385-14.645 53.025 0L862.5 906.45V187.5c0-20.71 16.79-37.5 37.5-37.5s37.5 16.79 37.5 37.5v718.95l107.965-107.96c14.64-14.645 38.38-14.645 53.02 0 14.645 14.64 14.645 38.38 0 53.025L900 1050zM75 712.5c0-20.71 16.79-37.5 37.5-37.5h450c20.71 0 37.5 16.79 37.5 37.5S583.21 750 562.5 750h-450C91.79 750 75 733.21 75 712.5M225 487.5c0-20.711 16.79-37.5 37.5-37.5h300c20.71 0 37.5 16.789 37.5 37.5S583.21 525 562.5 525h-300c-20.71 0-37.5-16.79-37.5-37.5M375 262.5c0-20.71 16.79-37.5 37.5-37.5h150c20.71 0 37.5 16.79 37.5 37.5S583.21 300 562.5 300h-150c-20.71 0-37.5-16.79-37.5-37.5"/></g><defs><clipPath id="a"><path fill="#fff" d="M0 0h1200v1200H0z"/></clipPath></defs></svg>

<svg width="1200" height="1200" viewBox="0 0 1200 1200" fill="none" xmlns="http://www.w3.org/2000/svg"><g clip-path="url(#clip0_122_145)"><path d="M701.51 851.515C686.87 836.87 686.87 813.13 701.51 798.49C716.155 783.845 739.895 783.845 754.535 798.49L862.5 906.45V187.5C862.5 166.79 879.29 150 900 150C920.71 150 937.5 166.79 937.5 187.5V906.45L1045.465 798.49C1060.105 783.845 1083.845 783.845 1098.485 798.49C1113.13 813.13 1113.13 836.87 1098.485 851.515L900 1050L701.51 851.515Z" fill="black"/><path d="M75 712.5C75 691.79 91.79 675 112.5 675H562.5C583.21 675 600 691.79 600 712.5C600 733.21 583.21 750 562.5 750H112.5C91.79 750 75 733.21 75 712.5Z" fill="black"/><path d="M225 487.5C225 466.789 241.79 450 262.5 450H562.5C583.21 450 600 466.789 600 487.5C600 508.21 583.21 525 562.5 525H262.5C241.79 525 225 508.21 225 487.5Z" fill="black"/><path d="M375 262.5C375 241.79 391.79 225 412.5 225H562.5C583.21 225 600 241.79 600 262.5C600 283.21 583.21 300 562.5 300H412.5C391.79 300 375 283.21 375 262.5Z" fill="black"/></g><defs><clipPath id="clip0_122_145"><path width="24" fill="white" d="M0 0H1200V1200H0V0z"/></clipPath></defs></svg>
